!!!COM: Beethoven 
!!!OTL: 12 Variationen uber einen russichen Tanz von P. Wranitzky
!!!Variation: Variation 12 e
**function	**harm	**kern	**kern
*	*	*clefG2	*clefG2
*	*	*k[f#c#g#]	*k[f#c#g#]
*M6/8	*M6/8	*M6/8	*M6/8
*A:	*A:	*A:	*A:
4.T	4.Ib	(4cc#	8r
.	.	.	8aa'L
.	.	8ee	8aa'J
=257	=257	=257	=257
4.T	4.V7d	4dd	(8aaL
.	.	.	16gg#L
.	.	.	16ff#J
.	.	8ee	8gg#J)
4.T	4.Ib	4cc#	8r
.	.	.	8aa'L
.	.	8ee	8aa'J
=258	=258	=258	=258
*	*	*	*^
4.T	4.V7c	4b	(8aaL	4.ddd
.	.	.	16gg#L	.
.	.	.	16ff#J	.
.	.	8ee	8gg#J)	.
*	*	*	*v	*v
4.T	4.vib	4a	8r
.	.	.	8ccc#'L
.	.	8cc#	8ff#'J
=259	=259	=259	=259
4.P	4.ii7/vi	4g#	8r
.	.	.	8bb'L
.	.	8dd	8ff#'J
4.D	4.V7/vi	4c#	8r
.	.	.	8bb'L
.	.	8cc#)	8ee#'J
=260	=260	=260	=260
2.T	2.i/vi	(16aLL	8r
.	.	16b	.
.	.	16a	8ff#'L
.	.	16g#J	.
.	.	8f#J)	8gg#'J
.	.	8r	(4aa
.	.	8ff#'L	.
.	.	8ff#'J	8ccc#
=261	=261	=261	=261
4.T	4.V7b/vi	(8ff#L	4bb
.	.	16ee#L	.
.	.	16dd#J	.
.	.	8ee#J)	8ccc#
4.T	4.i/vi	8r	4aa
.	.	8ff#'L	.
.	.	8ff#'J	8ccc#
=262	=262	=262	=262
2.T	2.ib/v/vi	(8ff#L	4gg#
.	.	16eeL	.
.	.	16dd#J	.
.	.	8eeJ)	8ccc#
.	.	8r	4gg#
.	.	8ee'L	.
.	.	8ee'J	8ccc#
=263	=263	=263	=263
4.P	4.ii7/v/vi	8r	4ff#
.	.	8dd#'L	.
.	.	8dd#'J	8ccc#
4.D	4.V7/v/vi	8r	4ff#
.	.	8g#'L	.
.	.	8g#'J	8bb#)
=264	=264	=264	=264
*	*	*	*^
4.T	4.i/v/vi	4cc#	(16eeLL	4ccc#
.	.	.	16ff#	.
.	.	.	16ee	.
.	.	.	16dd#J	.
.	.	8r	8cc#J)	8r
*	*	*clefF4	*	*
4.T	4.ib/v/vi	(4E	4.c# 4.g#	8r
.	.	.	.	8cc#'L
.	.	8G#	.	8cc#'J
=265	=265	=265	=265	=265
4.T	4.V7d/v/vi	4F#	4.d# 4.g#	(8cc#L
.	.	.	.	16b#L
.	.	.	.	16a#J
.	.	8G#	.	8b#J)
4.T	4.ib/v/vi	4E	4.c# 4.g#	8r
.	.	.	.	8cc#'L
.	.	8G#	.	8cc#'J
=266	=266	=266	=266	=266
4.P	4.viiob/v/vi	4D#	4.f# 4.ff#	(8cc#L
.	.	.	.	16b#L
.	.	.	.	16a#J
.	.	8G#	.	8b#J)
4.P	4.Fr/vi	4D	8r	8r
.	.	.	8b#L	8ff#L
.	.	8G#)	8b#J	8ff#J
=267	=267	=267	=267	=267
2.D	2.V7/vi	(4C#	4.b	(8ff#L
.	.	.	.	16ee#L
.	.	.	.	16dd#J
.	.	8G#	.	8ee#J)
.	.	4C#	8r	([4.bb
.	.	.	8ee#L	.
.	.	8c#)	8ee#J	.
=268	=268	=268	=268	=268
2.T	2.V7/ii	(4F#	4.ee	8bbL]
.	.	.	.	16aa#L
.	.	.	.	16gg#J
.	.	8c#	.	8aa#J)
.	.	4F#	4.aa#	8r
.	.	.	.	8eeeL
.	.	8f#)	.	8eeeJ
=269	=269	=269	=269	=269
2.P	2.V7/V	(4BB	4.aa	(8eeeL
.	.	.	.	16ddd#L
.	.	.	.	16ccc#J
.	.	8F#	.	8ddd#J)
.	.	4BB	8r	([4.aa
.	.	.	8dd#L	.
.	.	8B)	8dd#J	.
=270	=270	=270	=270	=270
2.D	2.V7	(4E	4.dd	8aaL]
.	.	.	.	16gg#L
.	.	.	.	16ff#J
.	.	8B	.	8gg#J)
.	.	4E	4.gg#	8r
.	.	.	.	8dddL
.	.	8e)	.	8dddJ
=271	=271	=271	=271	=271
4.T	4.I	8A	4aa	4ccc#
*	*	*clefG2	*	*
.	.	8ee'L	.	.
.	.	8ee'J	8r	8eee'
4.T	4.V7d	(8eeL	4r	4bb'
.	.	16ddL	.	.
.	.	16cc#J	.	.
.	.	8ddJ)	8r	8eee'
=272	=272	=272	=272	=272
4.T	4.Ib	4cc#'	8r	4aa
.	.	.	8eeL	.
.	.	8cc#'	8eeJ	8r
4.T	4.V7c	4b'	(8eeL	4gg#
.	.	.	16ddL	.
.	.	.	16cc#J	.
.	.	8b'	8ddJ)	8r
=273	=273	=273	=273	=273
4.T	4.I	8a'L	4cc#	4aa'
.	.	8cc#'	.	.
.	.	8cc#'J	8r	8ccc#'
4.T	4.V7d/vi	(8cc#L	4r	4gg#'
.	.	16bL	.	.
.	.	16a#J	.	.
.	.	8bJ)	8r	8ccc#'
=274	=274	=274	=274	=274
4.T	4.ib/vi	4a'	8r	4ff#
.	.	.	8cc#L	.
.	.	8a'	8cc#J	8r
4.T	4.V7c/vi	4g#'	(8cc#L	4ee#
.	.	.	16bL	.
.	.	.	16a#J	.
.	.	8g#'	8bJ)	8r
=275	=275	=275	=275	=275
4.T	4.i/vi	8f#'L	4a	4ff#'
.	.	8a'	.	.
.	.	8a'J	8r	8aa'
4.T	4.V7d/IV	(8aL	4.r	4ee'
.	.	16gL	.	.
.	.	16f#J	.	.
.	.	8gJ)	.	8aa'
=276	=276	=276	=276	=276
4.P	4.Ib/IV	4f#'	8r	4dd
.	.	.	8aL	.
.	.	8f#'	8aJ	8r
4.P	4.V7c/IV	4e'	(8aL	4cc#
.	.	.	16gL	.
.	.	.	16f#J	.
.	.	8e'	8gJ)	8r
*	*	*clefF4	*	*
=277	=277	=277	=277	=277
4.P	4.I/IV	4d	4f#	4dd
.	.	8A'	8r	8r
*	*	*	*v	*v
4.P	4.V7d/IV	4G'	16aLL
.	.	.	16g#
.	.	.	16a
.	.	.	16b
.	.	8A'	16cc#
.	.	.	16aJJ
=278	=278	=278	=278
4.P	4.Ib/IV	4F#'	16ddLL
.	.	.	16cc#
.	.	.	16dd
.	.	.	16ee
.	.	8A'	16ff#
.	.	.	16ddJJ
4.P	4.V7c/IV	4E'	16ggLL
.	.	.	16ff#
.	.	.	16gg
.	.	.	16aa
.	.	8A'	16bb
.	.	.	16ccc#JJ
=279	=279	=279	=279
4.P	4.I/IV	4D	4ddd
.	.	8r	8a' 8aa'
4.P	4.V7/IV	16AALL	4g' 4gg'
.	.	16GG#	.
.	.	16AA	.
.	.	16BB	.
.	.	16C#	8a' 8aa'
.	.	16AAJJ	.
=280	=280	=280	=280
4.P	4.I/IV	16DLL	4f#' 4ff#'
.	.	16C#	.
.	.	16D	.
.	.	16E	.
.	.	16F#	8a' 8aa'
.	.	16GJJ	.
4.P	4.V/IV	16ALL	4e' 4ee'
.	.	16G#	.
.	.	16A	.
.	.	16B	.
.	.	16c#	8a' 8aa'
.	.	16AJJ	.
=281	=281	=281	=281
4.P	4.I/IV	4d	4dd
.	.	8FF#' 8F#'	8r
4.P	4.V7d/ii	4EE' 4E'	16f#LL
.	.	.	16e#
.	.	.	16f#
.	.	.	16g#
.	.	8FF#' 8F#'	16a#
.	.	.	16f#JJ
=282	=282	=282	=282
4.P	4.ib/ii	4DD' 4D'	16bLL
.	.	.	16a#
.	.	.	16b
.	.	.	16cc#
.	.	8FF#' 8F#'	16dd
.	.	.	16bJJ
4.P	4.V7c	4CC#' 4C#'	16eeLL
.	.	.	16dd#
.	.	.	16ee
.	.	.	16ff#
.	.	8FF#' 8F#'	16gg#
.	.	.	16aa#JJ
=283	=283	=283	=283
4.P	4.i/ii	4BBB 4BB	4bb
.	.	8r	8f#' 8ff#'
4.P	4.V7/ii	16FF#LL	4e' 4ee'
.	.	16EE#	.
.	.	16FF#	.
.	.	16GG#	.
.	.	16AA#	8f#' 8ff#'
.	.	16FF#JJ	.
=284	=284	=284	=284
4.P	4.i/ii	16BBLL	4d' 4dd'
.	.	16AA#	.
.	.	16BB	.
.	.	16C#	.
.	.	16D	8f#' 8ff#'
.	.	16EJJ	.
4.P	4.V/ii	16F#LL	4c#' 4cc#'
.	.	16E#	.
.	.	16F#	.
.	.	16G#	.
.	.	16A#	8f#' 8ff#'
.	.	16F#JJ	.
=285	=285	=285	=285
4.P	4.i/ii	4B	4b
.	.	8DD' 8D'	8r
4.P	4.V7d/VI/ii	4CC' 4C'	16dLL
.	.	.	16c#
.	.	.	16d
.	.	.	16e
.	.	8DD' 8D'	16f#
.	.	.	16dJJ
=286	=286	=286	=286
4.P	4.Ib/VI/ii	4BBB' 4BB'	16gLL
.	.	.	16f#
.	.	.	16g
.	.	.	16a
.	.	8DD' 8D'	16b
.	.	.	16gJJ
4.P	4.V7c/VI/ii	4AAA' 4AA'	16ccLL
.	.	.	16b
.	.	.	16cc
.	.	.	16dd
.	.	8DD' 8D'	16ee
.	.	.	16ff#JJ
=287	=287	=287	=287
4.P	4.I/VI/ii	[2.GGG [2.GG	4gg
.	.	.	8ddd
*	*	*	*^
4.P	4.V7/VI/ii	.	4ff#	4ccc'
.	.	.	8r	8ddd'
=288	=288	=288	=288	=288
4.P	4.I/VI/ii	2.GGG_ 2.GG_	4gg	4bb'
.	.	.	8r	8ddd'
4.P	4.V7/VI/ii	.	4cc	4aa'
.	.	.	8r	8ddd'
=289	=289	=289	=289	=289
4.P	4.I/VI/ii	2.GGG] 2.GG]	4b	4gg'
.	.	.	8r	8ddd'
4.P	4.VI7/ii	.	4b	4ff#'
.	.	.	8r	8ddd'
=290	=290	=290	=290	=290
4.P	2.V7c/vi	2.GGG# 2.GG#	4b	(8ee#L
.	.	.	.	8bb
.	.	.	8r	8ccc#J
.	.	.	4.ee#	8dddL
.	.	.	.	8ccc#
.	.	.	.	8bbJ)
=291	=291	=291	=291	=291
2.P	2.ib/vi	2.AAA 2.AA	2.ff#	8r
.	.	.	.	(8aaL
.	.	.	.	8bbJ
.	.	.	.	8ccc#L
.	.	.	.	8bb
.	.	.	.	8aaJ)
=292	=292	=292	=292	=292
2.P	2.iiob	2.BBB 2.BB	2.dd	8r
.	.	.	.	(8gg#L
.	.	.	.	8aaJ
.	.	.	.	8bbL
.	.	.	.	8aa
.	.	.	.	8gg#J)
=293	=293	=293	=293	=293
2.P	2.viioD7/V/vi	2.BBB# 2.BB#	2.dd#	8r
.	.	.	.	(8ff#L
.	.	.	.	8gg#J
.	.	.	.	8aaL
.	.	.	.	8gg#
.	.	.	.	8ff#J)
=294	=294	=294	=294	=294
2.P	2.viioD7/V/vi	2.BB# 2.B#	2.a	8r
.	.	.	.	(8dd#L
.	.	.	.	8ee#J
.	.	.	.	8ff#L
.	.	.	.	8ee#
.	.	.	.	8dd#J)
*	*	*	*v	*v
=295	=295	=295	=295
2.D	2.V7/vi	16C#LL	4g# 4ee#
.	.	16c#	.
.	.	16C#	.
.	.	16c#	.
.	.	16C#	8ccc#'
.	.	16c#JJ	.
.	.	16C#LL	4gg#'
.	.	16c#	.
.	.	16C#	.
.	.	16c#	.
.	.	16C#	8cc#' 8aa'
.	.	16c#JJ	.
=296	=296	=296	=296
4.D	4.V/vi	16C#LL	4g#' 4ee#'
.	.	16c#	.
.	.	16C#	.
.	.	16c#	.
.	.	16C#	8a' 8cc#' 8ff#'
.	.	16c#JJ	.
4.D	4.Gn/vi	16C#LL	4f#' 4a' 4dd'
.	.	16c#	.
.	.	16C#	.
.	.	16c#	.
.	.	16C#	8f#' 8a' 8b#'
.	.	16c#JJ	.
=297	=297	=297	=297
2.D	2.V/vi	16CC#LL	4e#' 4g#' 4cc#'
.	.	16C#	.
.	.	16CC#	.
.	.	16C#	.
.	.	16CC#	8cc#'
.	.	16C#JJ	.
.	.	16CC#LL	4g#'
.	.	16C#	.
.	.	16CC#	.
.	.	16C#	.
.	.	16CC#	8c#' 8a'
.	.	16C#JJ	.
=298	=298	=298	=298
4.D	4.V/vi	16CC#LL	4G#' 4e#'
.	.	16C#	.
.	.	16CC#	.
.	.	16C#	.
.	.	16CC#	8A' 8c#' 8f#'
.	.	16C#JJ	.
*	*	*	*clefF4
4.D	4.Gn/vi	16CC#LL	4F#' 4A' 4d'
.	.	16C#	.
.	.	16CC#	.
.	.	16C#	.
.	.	16CC#	8F#' 8A' 8B#'
.	.	16C#JJ	.
=299	=299	=299	=299
*	*	*	*^
4.D	4.V/vi	16CC#LL	4.E# 4.G#	([4.c#
.	.	16C#	.	.
.	.	16CC#	.	.
.	.	16C#	.	.
.	.	16CC#	.	.
.	.	16C#JJ	.	.
4.D	4.viioD7/V/vi	16CC#LL	4.F# 4.A	4c#]
.	.	16C#	.	.
.	.	16CC#	.	.
.	.	16C#	.	.
.	.	16CC#	.	8B#)
.	.	16C#JJ	.	.
=300	=300	=300	=300	=300
4.D	4.V/vi	16CC#LL	4.E# 4.G#	([4.c#
.	.	16C#	.	.
.	.	16CC#	.	.
.	.	16C#	.	.
.	.	16CC#	.	.
.	.	16C#JJ	.	.
4.D	4.viioD7/V/vi	16CC#LL	4.F# 4.A	4c#]
.	.	16C#	.	.
.	.	16CC#	.	.
.	.	16C#	.	.
.	.	16CC#	.	8B#)
.	.	16C#JJ	.	.
*	*	*	*v	*v
=301	=301	=301	=301
2.D	2.V/vi	16CC#LL	[2.E# [2.G# [2.c#
.	.	16EE#	.
.	.	16GG#	.
.	.	16C#	.
.	.	16GG#	.
.	.	16EE#JJ	.
.	.	16CC#LL	.
.	.	16EE#	.
.	.	16GG#	.
.	.	16C#	.
.	.	16GG#	.
.	.	16EE#JJ	.
=302	=302	=302	=302
2.D	2.V/vi	16CC#LL	2.E#] 2.G#] 2.c#]
.	.	16EE#	.
.	.	16GG#	.
.	.	16C#	.
.	.	16GG#	.
.	.	16EE#JJ	.
.	.	16CC#LL	.
.	.	16EE#	.
.	.	16GG#	.
.	.	16C#	.
.	.	16GG#	.
.	.	16EE#JJ	.
=303	=303	=303	=303
2.D	2.viioD7d/vi	16DDLL	[2.F [2.A- [2.B
.	.	16FF	.
.	.	16AA-	.
.	.	16BB	.
.	.	16AA-	.
.	.	16FFJJ	.
.	.	16DDLL	.
.	.	16FF	.
.	.	16AA-	.
.	.	16BB	.
.	.	16AA-	.
.	.	16FFJJ	.
=304	=304	=304	=304
*A-:	*A-:	*A-:	*A-:
2.D	2.viioD7/V	16DDLL	2.F] 2.A-] 2.B]
.	.	16FF	.
.	.	16AA-	.
.	.	16BB	.
.	.	16AA-	.
.	.	16FFJJ	.
.	.	16DDLL	.
.	.	16FF	.
.	.	16AA-	.
.	.	16BB	.
.	.	16AA-	.
.	.	16FFJJ	.
=305	=305	=305	=305
*	*	*k[]	*k[]
2.D	2.Cc	16EE-LL	4E- 4A- 4c
.	.	16AA-	.
.	.	16C	.
.	.	16E-	.
.	.	16C	8r
.	.	16AA-JJ	.
.	.	16EE-LL	4.r
.	.	16AA-	.
.	.	16C	.
.	.	16E-	.
.	.	16C	.
.	.	16AA-JJ	.
=306	=306	=306	=306
2.D	2.Cc	16EE-LL	4.r
.	.	16AA-	.
.	.	16C	.
.	.	16E-	.
.	.	16C	.
.	.	16AA-JJ	.
.	.	16EE-LL	8r
.	.	16AA-	.
*	*	*	*clefG2
.	.	16C	8cc'L
.	.	16E-	.
.	.	16C	8ee-'J
.	.	16AA-JJ	.
=307	=307	=307	=307
4.D	4.V7	16EE-LL	(4dd-
.	.	16BB-	.
.	.	16D-	.
.	.	16E-	.
.	.	16D-	8ee-)
.	.	16BB-JJ	.
4.D	4.Cc	16EE-LL	8r
.	.	16AA-	.
.	.	16C	8cc'L
.	.	16E-	.
.	.	16C	8ee-'J
.	.	16AA-JJ	.
=308	=308	=308	=308
2.D	2.V7	16EE-LL	(4b-
.	.	16GG	.
.	.	16D-	.
.	.	16E-	.
.	.	16D-	8ee-)
.	.	16GGJJ	.
.	.	16EE-LL	8r
.	.	16GG	.
.	.	16D-	8b-'L
.	.	16E-	.
.	.	16D-	8cc'J
.	.	16GGJJ	.
=309	=309	=309	=309
2.T	2.I	16AA-LL	4a-
.	.	16C	.
.	.	16E-	.
.	.	16A-	.
.	.	16E-	8r
.	.	16CJJ	.
.	.	16AA-LL	4.r
.	.	16C	.
.	.	16E-	.
.	.	16A-	.
.	.	16E-	.
.	.	16CJJ	.
=310	=310	=310	=310
2.T	2.I	16AA-LL	2.r
.	.	16C	.
.	.	16E-	.
.	.	16A-	.
.	.	16E-	.
.	.	16CJJ	.
.	.	16AA-LL	.
.	.	16C	.
.	.	16E-	.
.	.	16A-	.
.	.	16E-	.
.	.	16CJJ	.
=311	=311	=311	=311
2.P	2.viioD7/V/V	16AAnLL	2.r
.	.	16C	.
.	.	16E-	.
.	.	16G-	.
.	.	16E-	.
.	.	16CJJ	.
.	.	16AAnLL	.
.	.	16C	.
.	.	16E-	.
.	.	16G-	.
.	.	16E-	.
.	.	16CJJ	.
=312	=312	=312	=312
2.P	2.viioD7/V/V	16AAnLL	2.r
.	.	16C	.
.	.	16E-	.
.	.	16G-	.
.	.	16E-	.
.	.	16CJJ	.
.	.	16AAnLL	.
.	.	16C	.
.	.	16E-	.
.	.	16G-	.
.	.	16E-	.
.	.	16CJJ	.
=313	=313	=313	=313
2.D	2.Cc/V	16BB-LL	2.r
.	.	16E-	.
.	.	16G	.
.	.	16B-	.
.	.	16G	.
.	.	16E-JJ	.
.	.	16BB-LL	.
.	.	16E-	.
.	.	16G	.
.	.	16B-	.
.	.	16G	.
.	.	16E-JJ	.
=314	=314	=314	=314
2.D	2.Cc/V	16BB-LL	4.r
.	.	16E-	.
.	.	16G	.
.	.	16B-	.
.	.	16G	.
.	.	16E-JJ	.
.	.	16BB-LL	8r
.	.	16E-	.
.	.	16G	8g'L 8gg'
.	.	16B-	.
.	.	16G	8b-'J 8bb-'
.	.	16E-JJ	.
=315	=315	=315	=315
4.D	4.V7/V	16BB-LL	(4a- 4aa-
.	.	16Fn	.
.	.	16A-	.
.	.	16B-	.
.	.	16A-	8b-) 8bb-
.	.	16FJJ	.
4.D	4.Cc/V	16BB-LL	8r
.	.	16E-	.
.	.	16G	8g'L 8gg'
.	.	16B-	.
.	.	16G	8b-'J 8bb-'
.	.	16E-JJ	.
=316	=316	=316	=316
2.D	2.V7/V	16BB-LL	(4f 4ff
.	.	16Dn	.
.	.	16A-	.
.	.	16B-	.
.	.	16A-	8b-) 8bb-
.	.	16DJJ	.
.	.	16BB-LL	8r
.	.	16Dn	.
.	.	16A-	8f'L 8ff'
.	.	16B-	.
.	.	16A-	8g'J 8gg'
.	.	16DJJ	.
=317	=317	=317	=317
2.T	2.I/V	16E-LL	4e- 4ee-
.	.	16G	.
.	.	16B-	.
.	.	16e-	.
.	.	16B-	8r
.	.	16GJJ	.
.	.	16E-LL	4.r
.	.	16G	.
.	.	16B-	.
.	.	16e-	.
.	.	16B-	.
.	.	16GJJ	.
=318	=318	=318	=318
2.T	2.I/V	16E-LL	2.r
.	.	16G	.
.	.	16B-	.
.	.	16e-	.
.	.	16B-	.
.	.	16GJJ	.
.	.	16E-LL	.
.	.	16G	.
.	.	16B-	.
.	.	16e-	.
.	.	16B-	.
.	.	16GJJ	.
=319	=319	=319	=319
*G:	*G:	*G:	*G:
2.P	2.viioD7b/V	16EnLL	2.r
.	.	16G	.
.	.	16B-	.
.	.	16c#	.
.	.	16B-	.
.	.	16GJJ	.
.	.	16EnLL	.
.	.	16G	.
.	.	16B-	.
.	.	16c#	.
.	.	16B-	.
.	.	16GJJ	.
=320	=320	=320	=320
2.P	2.viioD7b/V	16EnLL	2.r
.	.	16G	.
.	.	16B-	.
.	.	16c#	.
.	.	16B-	.
.	.	16GJJ	.
.	.	16EnLL	.
.	.	16G	.
.	.	16B-	.
.	.	16c#	.
.	.	16B-	.
.	.	16GJJ	.
=321	=321	=321	=321
2.D	2.Cc	16DnLL	2.r
.	.	16G	.
.	.	16Bn	.
.	.	16d	.
.	.	16B	.
.	.	16GJJ	.
.	.	16DnLL	.
.	.	16G	.
.	.	16Bn	.
.	.	16d	.
.	.	16B	.
.	.	16GJJ	.
=322	=322	=322	=322
2.D	2.Cc	16DnLL	4.r
.	.	16G	.
.	.	16Bn	.
.	.	16d	.
.	.	16B	.
.	.	16GJJ	.
.	.	16DnLL	8r
.	.	16G	.
.	.	16Bn	8b'L 8bb'
.	.	16d	.
.	.	16B	8dd'J 8ddd'
.	.	16GJJ	.
=323	=323	=323	=323
4.D	4.V7	16DnLL	(4cc 4ccc
.	.	16A	.
.	.	16cn	.
.	.	16d	.
.	.	16c	8dd) 8ddd
.	.	16AJJ	.
4.D	4.Cc	16DnLL	8r
.	.	16G	.
.	.	16Bn	8b'L 8bb'
.	.	16d	.
.	.	16B	8dd'J 8ddd'
.	.	16GJJ	.
=324	=324	=324	=324
2.D	2.V7	16DnLL	(4a 4aa
.	.	16F#	.
.	.	16cn	.
.	.	16d	.
.	.	16c	8dd) 8ddd
.	.	16F#JJ	.
.	.	16DnLL	8r
.	.	16F#	.
.	.	16cn	8a'L 8aa'
.	.	16d	.
.	.	16c	8b'J 8bb'
.	.	16F#JJ	.
=325	=325	=325	=325
4.D	4.Cc	16DnLL	4g 4gg
.	.	16G	.
.	.	16Bn	.
.	.	16d	.
.	.	16B	8r
.	.	16GJJ	.
*	*	*	*clefF4
4.D	4.V7	16DnLL	8r
.	.	16F#	.
.	.	16cn	8AA'L
.	.	16d	.
.	.	16c	8BB'J
.	.	16F#JJ	.
=326	=326	=326	=326
4.D	4.Cc	16DnLL	4GG
.	.	16G	.
.	.	16Bn	.
.	.	16d	.
.	.	16B	8r
.	.	16GJJ	.
*	*	*	*clefG2
4.D	4.V7	16DnLL	8r
.	.	16F#	.
.	.	16cn	8a'L 8aa'
.	.	16d	.
.	.	16c	8b'J 8bb'
.	.	16F#JJ	.
=327	=327	=327	=327
4.D	4.Cc	16DnLL	4g 4gg
.	.	16G	.
.	.	16Bn	.
.	.	16d	.
.	.	16B	8r
.	.	16GJJ	.
*	*	*	*clefF4
4.D	4.V7	16DnLL	8r
.	.	16F#	.
.	.	16cn	8AA'L
.	.	16d	.
.	.	16c	8BB'J
.	.	16F#JJ	.
=328	=328	=328	=328
4.D	4.Cc	16DnLL	4GG
.	.	16G	.
.	.	16Bn	.
.	.	16d	.
.	.	16B	8r
.	.	16GJJ	.
*	*	*	*clefG2
*a:	*a:	*a:	*a:
4.D	4.V7	16EnLL	8r
.	.	16G#	.
.	.	16dn	8b'L 8bb'
.	.	16e	.
.	.	16d	8cc'J 8ccc'
.	.	16G#JJ	.
=329	=329	=329	=329
4.D	4.Cc	16EnLL	4a 4aa
.	.	16A	.
.	.	16cn	.
.	.	16e	.
.	.	16c	8r
.	.	16AJJ	.
*	*	*	*clefF4
4.D	4.V7	16EnLL	8r
.	.	16G#	.
.	.	16dn	8BB'L
.	.	16e	.
.	.	16d	8C'J
.	.	16G#JJ	.
=330	=330	=330	=330
4.D	4.Cc	16EnLL	4AA
.	.	16A	.
.	.	16cn	.
.	.	16e	.
.	.	16c	8r
.	.	16AJJ	.
*	*	*	*clefG2
4.D	4.V7	16EnLL	8r
.	.	16G#	.
.	.	16dn	8b'L 8bb'
.	.	16e	.
.	.	16d	8cc'J 8ccc'
.	.	16G#JJ	.
=331	=331	=331	=331
4.D	4.Cc	16EnLL	4a 4aa
.	.	16A	.
.	.	16cn	.
.	.	16e	.
.	.	16c	8r
.	.	16AJJ	.
*	*	*	*clefF4
4.D	4.V7	16EnLL	8r
.	.	16G#	.
.	.	16dn	8BB'L
.	.	16e	.
.	.	16d	8C'J
.	.	16G#JJ	.
=332	=332	=332	=332
4.D	4.Cc	16EnLL	4AA
.	.	16A	.
.	.	16cn	.
.	.	16e	.
.	.	16c	8r
.	.	16AJJ	.
*	*	*	*clefG2
4.D	4.Gn	16FnLL	8r
.	.	16A	.
.	.	16Bn	8dd#'L 8ddd#'
.	.	16d#	.
.	.	16B	8dd#'J 8ddd#'
.	.	16AJJ	.
=333	=333	=333	=333
4.D	2.V	16EnLL	4ee 4eee
.	.	16A	.
.	.	16cn	.
.	.	16e	.
.	.	16c	8r
.	.	16AJJ	.
*	*	*	*clefF4
4.D	4.Gn	16FnLL	8r
.	.	16A	.
.	.	16Bn	8FF'L
.	.	16d#	.
.	.	16B	8FF'J
.	.	16AJJ	.
=334	=334	=334	=334
4.D	4.V	16EnLL	4EE
.	.	16A	.
.	.	16cn	.
.	.	16e	.
.	.	16c	8r
.	.	16AJJ	.
*	*	*	*clefG2
4.D	4.Gn	16FnLL	8r
.	.	16A	.
.	.	16Bn	8dd#'L 8ddd#'
.	.	16d#	.
.	.	16B	8dd#'J 8ddd#'
.	.	16AJJ	.
=335	=335	=335	=335
4.D	4.V	16EnLL	4ee 4eee
.	.	16A	.
.	.	16cn	.
.	.	16e	.
.	.	16c	8r
.	.	16AJJ	.
*	*	*	*clefF4
4.D	4.Gn	16FnLL	8r
.	.	16A	.
.	.	16Bn	8FFL
.	.	16d#	.
.	.	16B	8FFJ
.	.	16AJJ	.
=336	=336	=336	=336
4.D	4.V	16EnLL	4EE
.	.	16A	.
.	.	16cn	.
.	.	16e	.
.	.	16c	8r
.	.	16AJJ	.
*	*	*	*clefG2
4.D	4.Gn	16FnLL	8r
.	.	16A	.
.	.	16Bn	8dd#L 8ddd#
.	.	16d#	.
.	.	16B	8dd#J 8ddd#
.	.	16AJJ	.
=337	=337	=337	=337
4.D	4.V	16EnLL	4ee 4eee
.	.	16A	.
.	.	16cn	.
.	.	16e	.
.	.	16c	8r
.	.	16AJJ	.
4.D	4.Gn	16FnLL	8r
.	.	16A	.
.	.	16Bn	8dd#L 8ddd#
.	.	16d#	.
.	.	16B	8dd#J 8ddd#
.	.	16AJJ	.
=338	=338	=338	=338
4.D	4.V	16EnLL	4ee 4eee
.	.	16A	.
.	.	16cn	.
.	.	16e	.
.	.	16c	8r
.	.	16AJJ	.
4.D	4.Gn	16FnLL	8r
.	.	16A	.
.	.	16Bn	8dd#L 8ddd#
.	.	16d#	.
.	.	16B	8dd#J 8ddd#
.	.	16AJJ	.
=339	=339	=339	=339
2.D	2.V	4En 4G# 4Bn 4en	16eeeLL
.	.	.	16ddd#
.	.	.	16eee
.	.	.	16ddd#
.	.	8r	16eee
.	.	.	16ddd#JJ
*	*	*clefG2	*
.	.	4r	16eeeLL
.	.	.	16ddd#
.	.	.	16eee
.	.	.	16ddd#
.	.	(8g# 8b	16eee
.	.	.	16ddd#JJ
=340	=340	=340	=340
2.D	2.i	4a) 4cc	16eeeLL
.	.	.	16ddd#
.	.	.	16eee
.	.	.	16ddd#
.	.	8r	16eee
.	.	.	16ddd#JJ
.	.	4r	16eeeLL
.	.	.	16ddd#
.	.	.	16eee
.	.	.	16ddd#
.	.	(8f# 8a	16eee
.	.	.	16ddd#JJ
=341	=341	=341	=341
2.D	2.V7b	4g#) 4b	16eeeLL
.	.	.	16ddd#
.	.	.	16eee
.	.	.	16ddd#
.	.	8r	16eee
.	.	.	16ddd#JJ
.	.	4r	16eeeLL
.	.	.	16ddd#
.	.	.	16eee
.	.	.	16ddd#
.	.	(8b 8dd	16eee
.	.	.	16ddd#JJ
=342	=342	=342	=342
2.D	2.i	4a) 4cc	16eeeLL
.	.	.	16ddd#
.	.	.	16eee
.	.	.	16ddd#
.	.	8r	16eee
.	.	.	16ddd#JJ
.	.	4r	16eeeLL
.	.	.	16ddd#
.	.	.	16eee
.	.	.	16ddd#
.	.	(8f# 8a	16eee
.	.	.	16ddd#JJ
=343	=343	=343	=343
2.D	2.V	4e) 4g# 4b	16eeeLL
.	.	.	16ddd#
.	.	.	16eee
.	.	.	16ddd#
.	.	8r	16eee
.	.	.	16ddd#JJ
.	.	4.r	16eeeLL
.	.	.	16ddd#
.	.	.	16eee
.	.	.	16ddd#
.	.	.	16eee
.	.	.	16ddd#JJ
=344	=344	=344	=344
2.D	2.V	2.r	16eeeLL
.	.	.	16ddd#
.	.	.	16eee
.	.	.	16ddd#
.	.	.	16eee
.	.	.	16ddd#JJ
.	.	.	16eeeLL
.	.	.	16ddd#
.	.	.	16eee
.	.	.	16ddd#
.	.	.	16eee
.	.	.	16ddd#JJ
=345	=345	=345	=345
2.D	2.V7	2.r	2.dddn
=346	=346	=346	=346
4.D	4.V7	4.r	4.ddd
*-	*-	*-	*-
